!!! Genre: Buxtehude Chorale Prelude
!!! Title: Nun Bitten 208
!!! Number: 4
!!! Level: 2
**kern	**kern	**kern	**kern
*clefF4	*clefF4	*clefG2	*clefG2
*k[f#]	*k[f#]	*k[f#]	*k[f#]
*met(c)	*met(c)	*met(c)	*met(c)
*G:	*G:	*G:	*G:
=1	=1	=1	=1
4.C	8cL	2e[	1r
.	.	.	.
.	8GJ	.	.
.	.	.	.
.	4c[	.	.
.	.	.	.
8BBL	.	.	.
.	.	.	.
2AA	8cL]	8eL]	.
.	.	.	.
.	8B	8d	.
.	.	.	.
.	8A	8c	.
.	.	.	.
.	8GJ	8BJ	.
.	.	.	.
=2	=2	=2	=2
1D	4F#	4A	16r
.	.	.	16gL
.	.	.	16f#
.	.	.	16eJ
.	2G	8BL	16dL
.	.	.	16dd
.	.	8cJ	16cc
.	.	.	16bJ
.	.	2d[	8aL
.	.	.	.
.	.	.	8bJ
.	.	.	.
.	4F#	.	16ccL
.	.	.	16dd
.	.	.	16cc
.	.	.	16ddJ
=3	=3	=3	=3
4r	4G	8dL]	4.b
.	.	.	.
.	.	16e	.
.	.	16f#J	.
2GG	8r	2g	.
.	.	.	.
.	8e	.	16bL
.	.	.	16ccJ
.	4.d	.	8bL
.	.	.	.
.	.	.	16cc
.	.	.	16bJ
4D	.	4f#[	8aL
.	.	.	.
.	8c	.	16b
.	.	.	16aJ
=4	=4	=4	=4
4E	4.B	8f#L]	4g[
.	.	.	.
.	.	8eJ	.
.	.	.	.
4BB	.	4d[	16gL]
.	.	.	16a
.	8A	.	16f#
.	.	.	16gJ
2C[	4G	8dL]	4e[
.	.	.	.
.	.	16c	.
.	.	16BJ	.
.	4A[	4c	16e]L
.	.	.	16f#
.	.	.	16g
.	.	.	16aJ
=5	=5	=5	=5
2C]	4A]	1d	16f#L
.	.	.	16g
.	.	.	16f#
.	.	.	16gJ
.	4A	.	16f#L
.	.	.	16a
.	.	.	16g
.	.	.	16f#J
2BB	2G[	.	16gL
.	.	.	16a
.	.	.	16g
.	.	.	16aJ
.	.	.	16gL
.	.	.	16b
.	.	.	16a
.	.	.	16gJ
=6	=6	=6	=6
2C#	4G]	2e	16aL
.	.	.	16b
.	.	.	8aJ
.	.	.	.
.	8F#L	.	16aL
.	.	.	16b
.	8EJ	.	8aJ[
.	.	.	.
2D	2F#	2d	16a]L
.	.	.	16g
.	.	.	16f#
.	.	.	16eJ
.	.	.	16dL
.	.	.	16c
.	.	.	16B
.	.	.	16AJ
=7	=7	=7	=7
2E	1G[	4B	8GL
.	.	.	.
.	.	.	8gJ
.	.	.	.
.	.	8cL	4g[
.	.	.	.
.	.	16B	.
.	.	16cJ	.
2BB	.	2d[	16gL]
.	.	.	16f#
.	.	.	16g
.	.	.	16aJ
.	.	.	8.gLM
.	.	.	.
.	.	.	.
.	.	.	16f#J
=8	=8	=8	=8
2C[	2G][	8dL]	2e[
.	.	.	.
.	.	16c	.
.	.	16BJ	.
.	.	8.cL	.
.	.	.	.
.	.	.	.
.	.	16BJ	.
4C]	4G]	2c	16eL]
.	.	.	16e
.	.	.	16f#X
.	.	.	16gJ
4AA	8AL	.	16f#L
.	.	.	16g
.	8GJ	.	16e
.	.	.	16f#J
=9	=9	=9	=9
2BB[	4F#	4B	16dL
.	.	.	16b
.	.	.	16a
.	.	.	16bJ
.	2.G	2d	8.gLM
.	.	.	.
.	.	.	.
.	.	.	16f#J
16BBL]	.	.	2g
16D	.	.	.
16BB	.	.	.
16DJ	.	.	.
16CL	.	4e	.
16E	.	.	.
16C	.	.	.
16EJ	.	.	.
=10	=10	=10	=10
1D	2.B	2.d	16r
.	.	.	16ggL
.	.	.	16ff#
.	.	.	16eeJ
.	.	.	16ddL
.	.	.	16cc
.	.	.	16b
.	.	.	16aJ
.	.	.	16gL
.	.	.	16b
.	.	.	16a
.	.	.	16gJ
.	4A	4c	8.gLM
.	.	.	.
.	.	.	.
.	.	.	16f#J
=11	=11	=11	=11
1GG[	2.G	2.B	8gL
.	.	.	.
.	.	.	16dd
.	.	.	16ccJ
.	.	.	16bL
.	.	.	16dd
.	.	.	16ee
.	.	.	16ff#J
.	.	.	16ggL
.	.	.	16aa
.	.	.	8ggJ[
.	.	.	.
.	4A	4c	16ggL]
.	.	.	16aa
.	.	.	8ggJ[
.	.	.	.
=12	=12	=12	=12
1GG[]]	4B	4d	16ggL]
.	.	.	16aa
.	.	.	8ggJ[
.	.	.	.
.	4c	4e	16ggL]
.	.	.	16aa
.	.	.	8ggJ[
.	.	.	.
.	4B	4d	16ggL]
.	.	.	16aa
.	.	.	8ggJ[
.	.	.	.
.	4A	4c	16gg]L
.	.	.	16aa
.	.	.	16gg
.	.	.	16ff#J
=13	=13	=13	=13
1GG]	1B	1d	1gg
==	==	==	==
*-	*-	*-	*-
